X:599
T:Piper's Ceilidh, The
C:PM W MacLeod
S:Nuala Kennedy, Edinburgh
Z:Nigel Gatherer
L:1/8
M:4/4
K:D
B | A2 B<d B2 A2  | B2 d2 e4     | f2 e<f a3   f | gfed  f2 e2  |
    A2 B<d B2 A2  | B2 d2 e2 d<e | f2 e<d B2 A>B | d4    d3    :|
e | f2 a2  f2 e<d | e2 a2 f4     | e2 a2  f2 e<d | edB<d A2 d<e |
    f2 a2  f2 e<d | edBd  e2 d<e | f2 e<d B2 A>B | d4    d3    :|]
